markup/images/icon47.svg

<svg xmlns="http://www.w3.org/2000/svg" width="24" height="24"><path fill-rule="evenodd" fill="#0D1B27" d="M11.999.002C5.384.002.003 5.385.003 11.999c0 6.615 5.381 11.997 11.996 11.997s11.997-5.382 11.997-11.997c0-6.614-5.382-11.997-11.997-11.997zm6.917 18.609v-.474c0-1.636-1.89-2.233-2.901-2.665a50.396 50.396 0 0 1-1.766-.835.966.966 0 0 1-.482-.694l-.079-.775c.542-.505 1.031-1.208 1.114-1.992h.122c.192 0 .374-.144.402-.321l.192-1.185c.025-.253-.214-.407-.407-.407l.013-.072c.024-.142.039-.28.048-.414.013-.108.023-.219.027-.335.02-.559-.075-1.049-.231-1.323a3.154 3.154 0 0 0-.738-1.074c-.938-.887-2.024-1.233-2.951-.519-.631-.11-1.381.179-1.923.813-.296.347-.48.743-.559 1.133a3.59 3.59 0 0 0-.128.856 3.46 3.46 0 0 0 .087.941.395.395 0 0 0-.369.402l.191 1.186c.029.176.21.32.402.32h.11a3.98 3.98 0 0 0 1.122 2.028l-.075.75a.975.975 0 0 1-.482.695 37.61 37.61 0 0 1-1.765.823c-.951.392-2.902 1.029-2.902 2.665v.37a9.534 9.534 0 0 1-2.569-6.507c0-5.283 4.298-9.58 9.581-9.58 5.283 0 9.58 4.297 9.58 9.58a9.54 9.54 0 0 1-2.664 6.61z"/></svg>

<svg 
 xmlns="http://www.w3.org/2000/svg"
 xmlns:xlink="http://www.w3.org/1999/xlink"
 width="24px" height="24px">
<path fill-rule="evenodd"  fill="rgb(13, 27, 39)"
 d="M11.999,0.002 C5.384,0.002 0.003,5.385 0.003,11.999 C0.003,18.614 5.384,23.996 11.999,23.996 C18.614,23.996 23.996,18.614 23.996,11.999 C23.996,5.385 18.614,0.002 11.999,0.002 ZM18.916,18.611 C18.916,18.333 18.916,18.137 18.916,18.137 C18.916,16.501 17.026,15.904 16.015,15.472 C15.648,15.315 14.958,14.983 14.249,14.637 C14.009,14.520 13.794,14.208 13.767,13.943 L13.688,13.168 C14.230,12.663 14.719,11.960 14.802,11.176 L14.924,11.176 C15.116,11.176 15.298,11.032 15.326,10.855 L15.518,9.670 C15.543,9.417 15.304,9.263 15.111,9.263 C15.116,9.238 15.120,9.213 15.124,9.191 C15.148,9.049 15.163,8.911 15.172,8.777 C15.185,8.669 15.195,8.558 15.199,8.442 C15.219,7.883 15.124,7.393 14.968,7.119 C14.808,6.736 14.566,6.364 14.230,6.045 C13.292,5.158 12.206,4.812 11.279,5.526 C10.648,5.416 9.898,5.705 9.356,6.339 C9.060,6.686 8.876,7.082 8.797,7.472 C8.727,7.715 8.680,8.009 8.669,8.328 C8.656,8.682 8.691,9.006 8.756,9.269 C8.571,9.280 8.387,9.432 8.387,9.671 L8.578,10.857 C8.607,11.033 8.788,11.177 8.980,11.177 L9.090,11.177 C9.264,12.024 9.714,12.720 10.212,13.205 L10.137,13.955 C10.110,14.220 9.894,14.531 9.655,14.650 C8.969,14.985 8.294,15.306 7.890,15.473 C6.939,15.865 4.988,16.502 4.988,18.138 L4.988,18.508 C3.399,16.797 2.419,14.514 2.419,12.001 C2.419,6.718 6.717,2.421 12.000,2.421 C17.283,2.421 21.580,6.718 21.580,12.001 C21.580,14.563 20.562,16.889 18.916,18.611 Z"/>
</svg>
